!! 00000] TT[WS
!!!OTL: Hai wawa
!!!ARE: Asia, China,ÿShanxi Ningwu
!! Ethnic Group: Han
!! WI, 212
!!!SCT: J0251
!!!YEM: Copyright 1995, estate of Helmut Schaffrath.
**kern
*ICvox
*Ivox
*M2/4
*k[f#]
*G:
{8ee
8ee
8ee
16dd
16ee
=1
16ff#
16aa
16ff#
16ee
4dd
=2
16ee
8ee
16gg
8dd
16dd
16cc
=3
16ee
16dd
16cc
16b
4a}
=4
{8dd
8dd
8gg
16ee
16dd
=5
16b
16a
16b
16dd
4g
=6
8g
16g
16a
8dd
16dd
16f#
=7
8.e
16d
4e}
==
!!!AGN: Xiaodiao. Fengsuge, Jiating shenghuo
!!!ONB: ESAC (Essen Associative Code) Database: CHINA
!!!AMT: simple duple
!!!AIN: vox
!!!EED: Helmut Schaffrath
!!!EEV: 1.0
*-
